Obsidian/actions/16s/transform-shear-up.svg

<svg height="16" viewBox="0 0 16 16" width="16" xmlns="http://www.w3.org/2000/svg"><path d="m1 1v9h3v-3.8027344l7-1.5546875v-3.6425781zm13 4-9 2v9l9-2z" fill="#bebebe"/></svg>

<svg xmlns="http://www.w3.org/2000/svg" width="16" height="16" viewBox="0 0 16 16">
 <defs>
  <style id="current-color-scheme" type="text/css">
   .ColorScheme-Text { color:#bebebe; } .ColorScheme-Highlight { color:#4285f4; }
  </style>
 </defs>
 <path style="fill:currentColor" class="ColorScheme-Text" d="M 1 1 L 1 10 L 4 10 L 4 6.1972656 L 11 4.6425781 L 11 1 L 1 1 z M 14 5 L 5 7 L 5 16 L 14 14 L 14 5 z"/>
</svg>
